ir/archery-match.svg

<svg viewBox="0 0 24 24" stroke-width="1.5" fill="none" xmlns="http://www.w3.org/2000/svg" height="1em" width="1em">
  <path d="M8.61096 15.8891L20.6318 3.86829M8.61096 15.8891H5.78253L2.9541 18.7175H5.78253V21.546L8.61096 18.7175V15.8891ZM20.6318 3.86829H17.8033M20.6318 3.86829V6.69671" stroke="currentColor" stroke-linecap="round" stroke-linejoin="round"/>
  <path d="M15.3891 15.8891L3.36829 3.86829M15.3891 15.8891H18.2175L21.046 18.7175H18.2175V21.546L15.3891 18.7175V15.8891ZM3.36829 3.86829H6.19672M3.36829 3.86829V6.69671" stroke="currentColor" stroke-linecap="round" stroke-linejoin="round"/>
</svg>

<svg viewBox="0 0 24 24" stroke-width="1.5" fill="none" xmlns="http://www.w3.org/2000/svg" height="1em" width="1em">
  <path d="m8.611 15.89 12.02-12.022M8.612 15.89H5.783l-2.829 2.829h2.829v2.828l2.828-2.828V15.89Zm12.02-12.02h-2.828m2.829 0v2.828M15.39 15.89 3.367 3.867M15.39 15.89h2.829l2.828 2.829h-2.828v2.828l-2.829-2.828V15.89ZM3.37 3.87h2.828m-2.829 0v2.828" stroke="currentColor" stroke-linecap="round" stroke-linejoin="round"/>
</svg>
